X:14
T:Braes of Bushy
R:Reel
M:C
L:1/8
K:G
uF|\
vD(uG {A}(3GFG) BGAF|D2 (DF) ADFA|GFGuB dGB(ud|c)Adc (AG) G:|
(uf|:\
g2) vdB dgb(ug |=f2)cA cfa(u^f |g2) dg dcA(uB|c)Adc (uAG) G:|
(uA|\
B2)GB BGD(B|A2) =FA FAc(uA|B2) GB GBd(uB|c)Adc (AG)G(uA|
B2) GB GBd(uB|A2)=FA FAc(uA|B2) GB dgb(ud|c)Adc (uAG) vG|]
